dist/svgs/unicons/line/signal.svg

<svg xmlns="http://www.w3.org/2000/svg" viewBox="0 0 24 24"><path d="M6 15a1 1 0 00-1 1v3a1 1 0 002 0v-3a1 1 0 00-1-1zm4-3a1 1 0 00-1 1v6a1 1 0 002 0v-6a1 1 0 00-1-1zm8-8a1 1 0 00-1 1v14a1 1 0 002 0V5a1 1 0 00-1-1zm-4 4a1 1 0 00-1 1v10a1 1 0 002 0V9a1 1 0 00-1-1z"/></svg>

<svg xmlns="http://www.w3.org/2000/svg" viewBox="0 0 24 24"><path d="M6,15a1,1,0,0,0-1,1v3a1,1,0,0,0,2,0V16A1,1,0,0,0,6,15Zm4-3a1,1,0,0,0-1,1v6a1,1,0,0,0,2,0V13A1,1,0,0,0,10,12Zm8-8a1,1,0,0,0-1,1V19a1,1,0,0,0,2,0V5A1,1,0,0,0,18,4ZM14,8a1,1,0,0,0-1,1V19a1,1,0,0,0,2,0V9A1,1,0,0,0,14,8Z"/></svg>
